icons/Vitest-Light.svg

<svg width="256" height="256" viewBox="0 0 256 256" fill="none" xmlns="http://www.w3.org/2000/svg">
<rect width="256" height="256" rx="60" fill="#F4F2ED"/>
<path d="M178.09 92.319L130.277 161.45C129.77 162.183 129.037 162.732 128.189 163.014C127.341 163.296 126.424 163.293 125.577 163.01C124.731 162.726 124.001 162.174 123.499 161.44C122.997 160.704 122.749 159.826 122.793 158.938L124.707 120.77L93.8147 114.219C93.1545 114.079 92.5394 113.779 92.0238 113.345C91.5082 112.912 91.108 112.359 90.8587 111.735C90.6095 111.11 90.5188 110.434 90.5948 109.766C90.6707 109.098 90.9109 108.459 91.294 107.905L139.108 38.7737C139.615 38.0403 140.348 37.4914 141.196 37.21C142.044 36.9286 142.961 36.93 143.807 37.2143C144.654 37.4985 145.383 38.05 145.886 38.7851C146.388 39.5201 146.636 40.3984 146.591 41.287L144.677 79.455L175.569 86.0059C176.23 86.1459 176.845 86.4458 177.361 86.879C177.877 87.3123 178.276 87.8656 178.525 88.49C178.775 89.1143 178.865 89.7904 178.79 90.4583C178.714 91.1263 178.473 91.7651 178.09 92.319Z" fill="#FCC72B"/>
<path d="M128.019 219.451C126.747 219.452 125.488 219.203 124.313 218.717C123.138 218.23 122.071 217.515 121.173 216.616L75.9951 171.441C74.1878 169.624 73.1747 167.165 73.178 164.602C73.1814 162.039 74.201 159.581 76.0133 157.769C77.8255 155.957 80.2826 154.937 82.8455 154.933C85.4086 154.93 87.8684 155.942 89.6856 157.75L128.019 196.079L211.529 112.573C213.35 110.782 215.804 109.783 218.357 109.793C220.912 109.803 223.359 110.823 225.163 112.628C226.969 114.434 227.989 116.881 228 119.435C228.009 121.988 227.01 124.443 225.219 126.263L134.863 216.616C133.966 217.517 132.899 218.23 131.724 218.717C130.55 219.203 129.29 219.452 128.019 219.451Z" fill="#729B1B"/>
<path d="M127.98 219.451C129.252 219.452 130.511 219.203 131.686 218.717C132.861 218.23 133.928 217.515 134.826 216.616L180.004 171.441C181.812 169.624 182.825 167.165 182.821 164.602C182.818 162.039 181.798 159.581 179.986 157.769C178.173 155.957 175.716 154.937 173.153 154.933C170.591 154.93 168.131 155.942 166.313 157.75L127.98 196.079L44.4705 112.573C42.6499 110.782 40.1954 109.783 37.6416 109.793C35.0877 109.803 32.6413 110.823 30.8355 112.628C29.0296 114.434 28.0105 116.881 28.0001 119.435C27.9897 121.988 28.9889 124.443 30.78 126.263L121.136 216.616C122.034 217.517 123.101 218.23 124.275 218.717C125.45 219.203 126.709 219.452 127.98 219.451Z" fill="#729B1B" fill-opacity="0.5"/>
</svg>

<svg xmlns="http://www.w3.org/2000/svg" width="256" height="256" fill="none" viewBox="0 0 256 256"><rect width="256" height="256" fill="#F4F2ED" rx="60"/><path fill="#FCC72B" d="m178.09 92.32-47.81 69.13a4.12 4.12 0 0 1-7.49-2.51l1.92-38.17-30.9-6.55a4.1 4.1 0 0 1-3.22-4.45q.12-1.02.7-1.86l47.82-69.14a4.11 4.11 0 0 1 7.48 2.52l-1.91 38.17L175.57 86a4.1 4.1 0 0 1 3.22 4.45q-.13 1.01-.7 1.86"/><path fill="#729B1B" d="M128.02 219.45a9.7 9.7 0 0 1-6.85-2.83L76 171.44a9.68 9.68 0 0 1 13.69-13.69l38.33 38.33 83.5-83.5a9.68 9.68 0 0 1 13.7 13.68l-90.36 90.36a9.6 9.6 0 0 1-6.84 2.83"/><path fill="#729B1B" fill-opacity=".5" d="M127.98 219.45a9.7 9.7 0 0 0 6.85-2.83L180 171.44a9.67 9.67 0 0 0-13.69-13.69l-38.33 38.33-83.51-83.5a9.68 9.68 0 0 0-13.69 13.68l90.36 90.36a9.7 9.7 0 0 0 6.84 2.83"/></svg>
